static/assets/img/icons/theme/communication/shield-thunder.svg

<svg height="24" viewBox="0 0 24 24" width="24" xmlns="http://www.w3.org/2000/svg"><g fill="none" fill-rule="evenodd"><path d="m0 0h24v24h-24z" opacity="0"/><g fill="#000"><path d="m4 4 7.6314229-1.4308918c.2435956-.04567417.4935586-.04567417.7371542 0l7.6314229 1.4308918v9.2830094c0 2.9343767-1.5116536 5.6617741-4 7.2169906l-3.4700011 2.1687507c-.3242702.2026689-.7357276.2026689-1.0599978 0l-3.4700011-2.1687507c-2.48834642-1.5552165-4-4.2826139-4-7.2169906z" opacity=".3"/><path d="m11.3333333 18 4.6666667-6.6h-2.3333333v-4.4l-4.6666667 6.6h2.3333333z" opacity=".3"/></g></g></svg>

<svg width="24px" height="24px" viewBox="0 0 24 24" version="1.1" xmlns="http://www.w3.org/2000/svg" xmlns:xlink="http://www.w3.org/1999/xlink">
    <title>Icon For Shield-thunder</title>
    <g stroke="none" stroke-width="1" fill="none" fill-rule="evenodd">
        <rect opacity="0" x="0" y="0" width="24" height="24"></rect>
        <path d="M4,4 L11.6314229,2.5691082 C11.8750185,2.52343403 12.1249815,2.52343403 12.3685771,2.5691082 L20,4 L20,13.2830094 C20,16.2173861 18.4883464,18.9447835 16,20.5 L12.5299989,22.6687507 C12.2057287,22.8714196 11.7942713,22.8714196 11.4700011,22.6687507 L8,20.5 C5.51165358,18.9447835 4,16.2173861 4,13.2830094 L4,4 Z" fill="#000000" opacity="0.3"></path>
        <polygon fill="#000000" opacity="0.3" points="11.3333333 18 16 11.4 13.6666667 11.4 13.6666667 7 9 13.6 11.3333333 13.6"></polygon>
    </g>
</svg>
